www/assets/icons/help_center.svg

<svg xmlns="http://www.w3.org/2000/svg" width="24" height="24" viewBox="0 0 24 24" fill='currentColor'><path d="M19 3H5c-1.1 0-2 .9-2 2v14c0 1.1.9 2 2 2h14c1.1 0 2-.9 2-2V5c0-1.1-.9-2-2-2m-6.99 15c-.7 0-1.26-.56-1.26-1.26 0-.71.56-1.25 1.26-1.25.71 0 1.25.54 1.25 1.25-.01.69-.54 1.26-1.25 1.26m3.01-7.4c-.76 1.11-1.48 1.46-1.87 2.17-.16.29-.22.48-.22 1.41h-1.82c0-.49-.08-1.29.31-1.98.49-.87 1.42-1.39 1.96-2.16.57-.81.25-2.33-1.37-2.33-1.06 0-1.58.8-1.8 1.48l-1.65-.7C9.01 7.15 10.22 6 11.99 6c1.48 0 2.49.67 3.01 1.52.44.72.7 2.07.02 3.08"/></svg>

<svg width="24" height="24" viewBox="0 0 24 24" xmlns="http://www.w3.org/2000/svg" fill='currentColor'><path d="M19 3H5C3.9 3 3 3.9 3 5V19C3 20.1 3.9 21 5 21H19C20.1 21 21 20.1 21 19V5C21 3.9 20.1 3 19 3ZM12.01 18C11.31 18 10.75 17.44 10.75 16.74C10.75 16.03 11.31 15.49 12.01 15.49C12.72 15.49 13.26 16.03 13.26 16.74C13.25 17.43 12.72 18 12.01 18ZM15.02 10.6C14.26 11.71 13.54 12.06 13.15 12.77C12.99 13.06 12.93 13.25 12.93 14.18H11.11C11.11 13.69 11.03 12.89 11.42 12.2C11.91 11.33 12.84 10.81 13.38 10.04C13.95 9.23 13.63 7.71 12.01 7.71C10.95 7.71 10.43 8.51 10.21 9.19L8.56 8.49C9.01 7.15 10.22 6 11.99 6C13.47 6 14.48 6.67 15 7.52C15.44 8.24 15.7 9.59 15.02 10.6Z"/></svg>
